Adwaita++-Light/panel/16/copyq-normal.svg

<svg height="16" width="16" xmlns="http://www.w3.org/2000/svg">
  <path d="m3.5 1a3.5 3.5 0 0 0 -3.5 3.5 3.5 3.5 0 0 0 3.5 3.5 3.5 3.5 0 0 0 1.4766-.33l1.5234 1.83-5.5 6.5 7-5 7 5-5.5-6.5 1.523-1.832a3.5 3.5 0 0 0 1.477.332 3.5 3.5 0 0 0 3.5-3.5 3.5 3.5 0 0 0 -.002-.0254c0-.0197-.001-.0389-.002-.0586a3.5 3.5 0 0 0 -.045-.4707c-.018-.1195-.046-.2361-.076-.3535a3.5 3.5 0 0 0 -.059-.2051c-.063-.1946-.146-.3814-.244-.5644-.154-.2881-.335-.5652-.576-.8086-.536-.5408-1.205-.8547-1.9-.9629a3.5 3.5 0 0 0 -.027-.0039 3.5 3.5 0 0 0 -.461-.043c-.012-.0001-.024-.0039-.036-.0039-.006 0-.012.0019-.017.002a3.5 3.5 0 0 0 -.054-.002 3.5 3.5 0 0 0 -3.5 3.5 3.5 3.5 0 0 0 .383 1.584l-1.383 1.916-1.3814-1.9121a3.5 3.5 0 0 0 .3814-1.5879 3.5 3.5 0 0 0 -3.5005-3.5zm0 2a1.5 1.5 0 0 1 1.5 1.5 1.5 1.5 0 0 1 -1.5 1.5 1.5 1.5 0 0 1 -1.5-1.5 1.5 1.5 0 0 1 1.5-1.5zm9 0a1.5 1.5 0 0 1 1.5 1.5 1.5 1.5 0 0 1 -1.5 1.5 1.5 1.5 0 0 1 -1.5-1.5 1.5 1.5 0 0 1 1.5-1.5z" fill="#444"/>
</svg>

<svg xmlns="http://www.w3.org/2000/svg" width="16" height="16" version="1.1">
 <defs>
  <style id="current-color-scheme" type="text/css">
   .ColorScheme-Text { color:#444444; } .ColorScheme-Highlight { color:#4285f4; }
  </style>
 </defs>
 <path style="fill:currentColor" class="ColorScheme-Text" d="M 3.5,1 A 3.5,3.5 0 0 0 0,4.5 3.5,3.5 0 0 0 3.5,8 3.5,3.5 0 0 0 4.9766,7.67 L 6.5,9.5 1,16 8,11 15,16 9.5,9.5 11.023,7.668 A 3.5,3.5 0 0 0 12.5,8 3.5,3.5 0 0 0 16,4.5 3.5,3.5 0 0 0 15.998,4.4746 C 15.998,4.4549 15.997,4.4357 15.996,4.416 A 3.5,3.5 0 0 0 15.951,3.9453 C 15.933,3.8258 15.905,3.7092 15.875,3.5918 A 3.5,3.5 0 0 0 15.816,3.3867 C 15.753,3.1921 15.67,3.0053 15.572,2.8223 15.418,2.5342 15.237,2.2571 14.996,2.0137 14.46,1.4729 13.791,1.159 13.096,1.0508 A 3.5,3.5 0 0 0 13.069,1.0469 3.5,3.5 0 0 0 12.608,1.0039 C 12.596,1.0038 12.584,1 12.572,1 12.566,1 12.56,1.0019 12.555,1.002 A 3.5,3.5 0 0 0 12.501,1 3.5,3.5 0 0 0 9.001,4.5 3.5,3.5 0 0 0 9.384,6.084 L 8.001,8 6.6196,6.0879 A 3.5,3.5 0 0 0 7.001,4.5 3.5,3.5 0 0 0 3.5005,1 Z M 3.5,3 A 1.5,1.5 0 0 1 5,4.5 1.5,1.5 0 0 1 3.5,6 1.5,1.5 0 0 1 2,4.5 1.5,1.5 0 0 1 3.5,3 Z M 12.5,3 A 1.5,1.5 0 0 1 14,4.5 1.5,1.5 0 0 1 12.5,6 1.5,1.5 0 0 1 11,4.5 1.5,1.5 0 0 1 12.5,3 Z"/>
</svg>
